map-icons/icon-tickets-sales-point.svg

<?xml version="1.0" encoding="utf-8"?>
<!-- Generator: Adobe Illustrator 19.2.1, SVG Export Plug-In . SVG Version: 6.00 Build 0)  -->
<!DOCTYPE svg PUBLIC "-//W3C//DTD SVG 1.1//EN" "http://www.w3.org/Graphics/SVG/1.1/DTD/svg11.dtd">
<svg version="1.1" id="Layer_1" xmlns="http://www.w3.org/2000/svg" xmlns:xlink="http://www.w3.org/1999/xlink" x="0px" y="0px"
	 viewBox="0 0 16 16" enable-background="new 0 0 16 16" xml:space="preserve">
<g>
	<path fill="#007AC9" d="M0,1.98C0,0.9,0.9,0,1.98,0h12C15.1,0,16,0.9,16,1.98v12C16,15.1,15.1,16,13.98,16h-12
		C0.9,16,0,15.1,0,13.98V1.98z"/>
	<path fill="#FFFFFF" d="M7.335,6.445C8.202,6.094,9.189,6.512,9.54,7.379c0.351,0.867-0.067,1.854-0.934,2.205
		C7.739,9.935,6.752,9.517,6.401,8.65C6.05,7.783,6.468,6.795,7.335,6.445 M8.808,10.083c1.142-0.462,1.694-1.763,1.231-2.906
		C9.577,6.035,8.276,5.483,7.133,5.946C5.991,6.408,5.439,7.709,5.902,8.852C6.364,9.994,7.665,10.546,8.808,10.083"/>
	<path fill="#FFFFFF" d="M7.391,7.679C7.432,7.674,7.47,7.703,7.475,7.744C7.48,7.785,7.451,7.823,7.41,7.828
		C7.368,7.833,7.331,7.804,7.326,7.763C7.321,7.721,7.35,7.684,7.391,7.679 M7.513,7.922l0.773-0.313
		c0.043-0.017,0.091,0.003,0.109,0.046l0.139,0.344C8.551,8.041,8.53,8.09,8.488,8.107L7.715,8.42
		C7.672,8.437,7.623,8.417,7.606,8.374L7.467,8.031C7.45,7.988,7.47,7.939,7.513,7.922 M8.222,7.341
		C8.26,7.325,8.303,7.344,8.319,7.382C8.334,7.42,8.316,7.464,8.278,7.48C8.239,7.495,8.196,7.477,8.18,7.438
		C8.165,7.4,8.183,7.356,8.222,7.341 M8.571,8.206C8.61,8.191,8.653,8.209,8.669,8.247C8.685,8.286,8.666,8.33,8.628,8.345
		C8.589,8.361,8.546,8.342,8.53,8.304C8.515,8.266,8.533,8.222,8.571,8.206 M7.779,8.689C7.741,8.705,7.697,8.686,7.682,8.647
		C7.666,8.609,7.684,8.565,7.723,8.55C7.761,8.534,7.805,8.553,7.82,8.591C7.836,8.629,7.818,8.674,7.779,8.689 M7.57,8.695
		C7.608,8.79,7.716,8.836,7.811,8.797L8.68,8.445c0.095-0.039,0.141-0.147,0.102-0.241L8.431,7.335
		C8.393,7.24,8.284,7.194,8.19,7.232L7.32,7.584C7.225,7.623,7.18,7.731,7.218,7.826L7.57,8.695z"/>
	<path fill="#FFFFFF" d="M13.562,9.26l-0.305,0.12c0.132-0.507,0.191-1.035,0.172-1.568l0.362,0.921c0.04,0.1,0.037,0.21-0.007,0.31
		C13.741,9.144,13.662,9.22,13.562,9.26 M2.686,6.64C2.533,7.226,2.476,7.839,2.526,8.456l-0.448-1.14
		C1.995,7.108,2.098,6.871,2.307,6.79L2.686,6.64z M11.211,3.286c0.047-0.019,0.096-0.028,0.146-0.028
		c0.167,0,0.32,0.103,0.381,0.257l0.365,0.928c-0.351-0.406-0.757-0.754-1.202-1.036L11.211,3.286z M6.931,5.447
		c1.418-0.574,3.033,0.111,3.607,1.529c0.574,1.418-0.111,3.033-1.529,3.607c-1.418,0.574-3.033-0.111-3.607-1.529
		C4.829,7.635,5.513,6.021,6.931,5.447 M3.407,9.861C2.94,8.706,2.943,7.479,3.325,6.389l0.694-0.273
		C3.504,7.189,3.424,8.468,3.906,9.659c0.469,1.16,1.379,2.008,2.457,2.433l-0.69,0.272C4.681,11.842,3.86,10.982,3.407,9.861
		 M4.511,12.792c-0.167,0-0.32-0.103-0.381-0.257l-0.447-1.136c0.382,0.484,0.84,0.894,1.349,1.218l-0.374,0.147
		C4.61,12.783,4.561,12.792,4.511,12.792 M7.169,11.775c-1.206-0.258-2.267-1.089-2.764-2.318C3.895,8.199,4.1,6.83,4.829,5.797
		l1.236-0.486c-1.23,0.865-1.749,2.491-1.16,3.944c0.576,1.422,2.028,2.226,3.481,2.042L7.169,11.775z M9.902,10.7
		c1.211-0.87,1.719-2.484,1.135-3.927c-0.579-1.432-2.047-2.238-3.51-2.038l1.231-0.485c1.212,0.254,2.278,1.087,2.778,2.321
		c0.508,1.254,0.306,2.618-0.416,3.65L9.902,10.7z M12.619,9.631l-0.693,0.273c0.512-1.072,0.59-2.347,0.109-3.534
		c-0.47-1.163-1.384-2.014-2.467-2.437l0.691-0.272c0.996,0.522,1.82,1.383,2.275,2.508C13,7.319,12.998,8.544,12.619,9.631
		 M14.238,8.557l-2.053-5.218c-0.137-0.348-0.473-0.562-0.827-0.562c-0.107,0-0.216,0.02-0.322,0.061L2.131,6.343
		c-0.454,0.179-0.679,0.696-0.5,1.15l2.053,5.218c0.137,0.348,0.473,0.562,0.827,0.562c0.108,0,0.217-0.02,0.322-0.061l8.904-3.504
		C14.191,9.528,14.416,9.011,14.238,8.557"/>
</g>
</svg>

<?xml version="1.0" encoding="UTF-8" standalone="no"?>
<!-- Generator: Adobe Illustrator 19.2.1, SVG Export Plug-In . SVG Version: 6.00 Build 0)  -->

<svg
   xmlns:dc="http://purl.org/dc/elements/1.1/"
   xmlns:cc="http://creativecommons.org/ns#"
   xmlns:rdf="http://www.w3.org/1999/02/22-rdf-syntax-ns#"
   xmlns:svg="http://www.w3.org/2000/svg"
   xmlns="http://www.w3.org/2000/svg"
   xmlns:sodipodi="http://sodipodi.sourceforge.net/DTD/sodipodi-0.dtd"
   xmlns:inkscape="http://www.inkscape.org/namespaces/inkscape"
   version="1.1"
   id="Layer_1"
   x="0px"
   y="0px"
   viewBox="0 0 24 24"
   enable-background="new 0 0 16 16"
   xml:space="preserve"
   sodipodi:docname="icon-tickets-sales-point.svg"
   width="24"
   height="24"
   inkscape:version="0.92.2 5c3e80d, 2017-08-06"><metadata
     id="metadata17"><rdf:RDF><cc:Work
         rdf:about=""><dc:format>image/svg+xml</dc:format><dc:type
           rdf:resource="http://purl.org/dc/dcmitype/StillImage" /><dc:title></dc:title></cc:Work></rdf:RDF></metadata><defs
     id="defs15" /><sodipodi:namedview
     pagecolor="#ffffff"
     bordercolor="#666666"
     borderopacity="1"
     objecttolerance="10"
     gridtolerance="10"
     guidetolerance="10"
     inkscape:pageopacity="0"
     inkscape:pageshadow="2"
     inkscape:window-width="1392"
     inkscape:window-height="833"
     id="namedview13"
     showgrid="false"
     inkscape:zoom="14.75"
     inkscape:cx="8"
     inkscape:cy="8"
     inkscape:window-x="0"
     inkscape:window-y="0"
     inkscape:window-maximized="0"
     inkscape:current-layer="Layer_1" /><g
     id="g10"
     transform="scale(1.5)"><path
       d="M 0,1.98 C 0,0.9 0.9,0 1.98,0 h 12 C 15.1,0 16,0.9 16,1.98 v 12 C 16,15.1 15.1,16 13.98,16 h -12 C 0.9,16 0,15.1 0,13.98 Z"
       id="path2"
       inkscape:connector-curvature="0"
       style="fill:#007ac9" /><path
       d="M 7.335,6.445 C 8.202,6.094 9.189,6.512 9.54,7.379 9.891,8.246 9.473,9.233 8.606,9.584 7.739,9.935 6.752,9.517 6.401,8.65 6.05,7.783 6.468,6.795 7.335,6.445 m 1.473,3.638 C 9.95,9.621 10.502,8.32 10.039,7.177 9.577,6.035 8.276,5.483 7.133,5.946 5.991,6.408 5.439,7.709 5.902,8.852 c 0.462,1.142 1.763,1.694 2.906,1.231"
       id="path4"
       inkscape:connector-curvature="0"
       style="fill:#ffffff" /><path
       d="M 7.391,7.679 C 7.432,7.674 7.47,7.703 7.475,7.744 7.48,7.785 7.451,7.823 7.41,7.828 7.368,7.833 7.331,7.804 7.326,7.763 7.321,7.721 7.35,7.684 7.391,7.679 M 7.513,7.922 8.286,7.609 C 8.329,7.592 8.377,7.612 8.395,7.655 L 8.534,7.999 C 8.551,8.041 8.53,8.09 8.488,8.107 L 7.715,8.42 C 7.672,8.437 7.623,8.417 7.606,8.374 L 7.467,8.031 C 7.45,7.988 7.47,7.939 7.513,7.922 M 8.222,7.341 C 8.26,7.325 8.303,7.344 8.319,7.382 8.334,7.42 8.316,7.464 8.278,7.48 8.239,7.495 8.196,7.477 8.18,7.438 8.165,7.4 8.183,7.356 8.222,7.341 M 8.571,8.206 C 8.61,8.191 8.653,8.209 8.669,8.247 8.685,8.286 8.666,8.33 8.628,8.345 8.589,8.361 8.546,8.342 8.53,8.304 8.515,8.266 8.533,8.222 8.571,8.206 M 7.779,8.689 C 7.741,8.705 7.697,8.686 7.682,8.647 7.666,8.609 7.684,8.565 7.723,8.55 7.761,8.534 7.805,8.553 7.82,8.591 7.836,8.629 7.818,8.674 7.779,8.689 M 7.57,8.695 C 7.608,8.79 7.716,8.836 7.811,8.797 L 8.68,8.445 C 8.775,8.406 8.821,8.298 8.782,8.204 L 8.431,7.335 C 8.393,7.24 8.284,7.194 8.19,7.232 L 7.32,7.584 C 7.225,7.623 7.18,7.731 7.218,7.826 Z"
       id="path6"
       inkscape:connector-curvature="0"
       style="fill:#ffffff" /><path
       d="m 13.562,9.26 -0.305,0.12 c 0.132,-0.507 0.191,-1.035 0.172,-1.568 l 0.362,0.921 c 0.04,0.1 0.037,0.21 -0.007,0.31 C 13.741,9.144 13.662,9.22 13.562,9.26 M 2.686,6.64 C 2.533,7.226 2.476,7.839 2.526,8.456 L 2.078,7.316 C 1.995,7.108 2.098,6.871 2.307,6.79 Z m 8.525,-3.354 c 0.047,-0.019 0.096,-0.028 0.146,-0.028 0.167,0 0.32,0.103 0.381,0.257 l 0.365,0.928 C 11.752,4.037 11.346,3.689 10.901,3.407 Z M 6.931,5.447 C 8.349,4.873 9.964,5.558 10.538,6.976 11.112,8.394 10.427,10.009 9.009,10.583 7.591,11.157 5.976,10.472 5.402,9.054 4.829,7.635 5.513,6.021 6.931,5.447 M 3.407,9.861 C 2.94,8.706 2.943,7.479 3.325,6.389 L 4.019,6.116 C 3.504,7.189 3.424,8.468 3.906,9.659 c 0.469,1.16 1.379,2.008 2.457,2.433 l -0.69,0.272 C 4.681,11.842 3.86,10.982 3.407,9.861 m 1.104,2.931 c -0.167,0 -0.32,-0.103 -0.381,-0.257 L 3.683,11.399 c 0.382,0.484 0.84,0.894 1.349,1.218 L 4.658,12.764 C 4.61,12.783 4.561,12.792 4.511,12.792 M 7.169,11.775 C 5.963,11.517 4.902,10.686 4.405,9.457 3.895,8.199 4.1,6.83 4.829,5.797 L 6.065,5.311 c -1.23,0.865 -1.749,2.491 -1.16,3.944 0.576,1.422 2.028,2.226 3.481,2.042 z M 9.902,10.7 C 11.113,9.83 11.621,8.216 11.037,6.773 10.458,5.341 8.99,4.535 7.527,4.735 L 8.758,4.25 c 1.212,0.254 2.278,1.087 2.778,2.321 0.508,1.254 0.306,2.618 -0.416,3.65 z M 12.619,9.631 11.926,9.904 C 12.438,8.832 12.516,7.557 12.035,6.37 11.565,5.207 10.651,4.356 9.568,3.933 l 0.691,-0.272 c 0.996,0.522 1.82,1.383 2.275,2.508 0.466,1.15 0.464,2.375 0.085,3.462 M 14.238,8.557 12.185,3.339 C 12.048,2.991 11.712,2.777 11.358,2.777 c -0.107,0 -0.216,0.02 -0.322,0.061 L 2.131,6.343 c -0.454,0.179 -0.679,0.696 -0.5,1.15 l 2.053,5.218 c 0.137,0.348 0.473,0.562 0.827,0.562 0.108,0 0.217,-0.02 0.322,-0.061 l 8.904,-3.504 c 0.454,-0.18 0.679,-0.697 0.501,-1.151"
       id="path8"
       inkscape:connector-curvature="0"
       style="fill:#ffffff" /></g></svg>
